X: 859
T: Gönlüm Geri Dön
C: Kâsım İnaltekin
O: Turkey
F: http://compmusic.upf.edu/node/140
N: beyati--sarki--aksak--gonlum_geri--kasim_inaltekin
N: makam= beyati
N: form= sarki
N: usul= aksak = 9/8
M: 9/8
L: 1/16
K: C _2/4B   
Q: 1/4=120
%%MIDI tuningsystem comma53
d4 {e}dcBc d2e2 fge2 d2 | c3BcB BAA2 {c}BAA6  | 
w:  Gön *  lüm  *  *  *  ge ri  dön   |  yok  *  ki  *  me *  câ *  *  *  lin   | 
.A4 g2a2 g2f2 e2d2 {f}ed | d2 f2e2 d2c2 B2A6  | \
w:  *  gi de mez  |  sin   SAZ  | 
d4 {e}dcBc d2e2 fge2 d2 | 
w:  Gön *  lüm  *  *  *  ge ri  dön   | 
c3BcB BAA2 {c}BAA6  | .A4 g2a2 g2f2 e2d2 {f}ed | \
w:  yok  *  ki  *  me *  câ *  *  *  lin   |  *  gi de mez  | 
d6 fedc Bc.d2 .e2.f2  | 
w:  sin   SAZ  | 
f4 f2_1/4e2 _2/4e2d2 d_3/4ede dc | \
w:  Sen  son *  ra  bu  sev  | 
d2 cB^3/4f2 _2/4eddc Bdc6  | 
w:  dâ *  *  ya  ta *  ham *  *  *  mül   | 
c4 c2d2 d2{f}ed d2c2 cB | B8BA Bcd6  | \
w:  *  e de mez  |  sin   SAZ  | 
d3c c3B B2{c}BA A6 | 
w:  Sen  *  son *  ra  *  bu  *  sev  | 
^3/4fg abc'_b baag gfgf _2/4edc=e  | \
w:  dâ *  *  *  ya  *  ta *  ham *  *  *  mül   | 
d4 e2e2 d2c2 B4 BA | 
w:  *  e de mez  | 
A6 ^3/4fgag fga6  | g2{a}ga a4 a2b2 c'2b2 a2 | \
w:  sin   SAZ  |  Kâ *  *  *  fi  bu  me şak  | 
a3gg2 _b2ag ^3/4f_1/4ef6  | 
w:  kat  *  ba na  hem   | 
^3/4f4 f2g2 f2_2/4e2 e2d2 {g}fe | \
w:  yet ti  de mez  | 
_2/4e8^3/4f3/2e/ dfe6  | _2/4e4 e4 e2{^3/4f}ed d_3/4ede dc | 
w:  sin   SAZ  |  Kâ fi  bu  *  me şak  | 
d2 cBg^3/4f _2/4eddc Bdc2 B2A2  | \
w:  kat  *  *  ba *  na  *  hem   | 
g4 f2e2 d2c2 c2B2 ed | 
w:  yet ti  de mez  | 
d6 fedc Bc.d2 .e2.f2  | f4 f2_1/4e2 _2/4e2d2 d_3/4ede dc | 
w:  sin    |  Sen  son *  ra  bu  sev  | 
d2 cB^3/4f2 _2/4eddc Bdc6  | c4 c2d2 d2{f}ed d2c2 cB | 
w:  dâ *  *  ya  ta *  ham *  *  *  mül   |  *  e de mez  | 
B8BA Bcd6  | d3c c3B B2{c}BA A6 | ^3/4fg abc'_b baag gfgf _2/4edc=e  | 
w:  sin   SAZ  |  Sen  *  son *  ra  *  bu  *  sev  |  dâ *  *  *  ya  *  ta *  ham *  *  *  mül   | 
d4 e2e2 d2c2 B4 BA | A6 |
w:  *  e de mez  |  sin    | 


